!!!COM: Carl Loewe
!!!CNT: Deutscher
!!!TXO: Deutsch
!!!OTL: "Erlko2nig"
!!!LYR: Goethe
!!!OPS: Op. 1
!!!ONM: No. 3
!!!ENC: O'Neal Douglas
!!!YOR: Twelve Songs and Ballads Vol. 1 and 2
!!!YOR: New York:Schirmer, 1903
!!!ODT: 1823/
!!NB: Vocal melody and text encoded.
**kern	**text
*staff1	*staff1
*clefG2	*
*k[f#]	*
*M9/8	*
*MM120	*
=3	=3
4r	.
{8F#	{Wer
8G	rei-
8G	-tet
8A#	so
4B	spa2t
8d#	durch
=4	=4
4e	Nacht
8f#	und
4g}	Wind?}
8r	.
4r	.
8r	.
=5	=5
4r	.
8r	.
4r	.
{8f#	{Es
4g	ist
8e	der
=6	=6
[4.b	Va-
8b]	|
8f#	-ter
8d#	mit
(8e	sei-
8c#)	|
8f#	-nem
=7	=7
4b}	Kind,}
8r	.
4r	.
{8B	{er
4B	hat
8B	den
=8	=8
4e	Kna-
8e	-ben
4.e	wohl
(8f#	in
8e)	|
8f#	dem
=9	=9
4g	Arm,
8r	.
4r	.
8g	er
4g	fasst
8g	ihn
=10	=10
8f#	si-
8f#	-cher,
8r	.
4r	.
8f#	er
4b	ha2lt
8a	ihn
=11	=11
4g}	warm,}
8r	.
4r	.
{8g	{er
4g	fasst
8g	ihn
=12	=12
8f#	si-
8f#	-cher,
8r	.
4r	.
8f#	er
4b	ha2lt
8b	ihn
=13	=13
4.e}	warm.}
4r	.
8r	.
4r	.
8r	.
=14	=14
4r	.
8r	.
4r	.
8r	.
4r	.
{8B	{"Mein
=15	=15
4B	Sohn,
8d#	was
8e	birgst
8e	du
8f#	so
8g	bang
8g	dein
8a	Ge-
=16	=16
8b}	-sicht!"}
8r	.
8r	.
4r	.
8r	.
4r	.
{8e	{"Siehst,
=17	=17
8b	Va-
8r	.
8b	-ter,
4b	du
8r	.
4r	.
8b	den
=18	=18
8a#	Erl-
8g#	-ko2-
8a#	-nig
8b}	nicht?}
8r	.
8r	.
4r	.
{8b	{den
=19	=19
4a#	Er-
8a#	-len-
4b	-ko2-
8b	-nig
4r	.
8b	mit
=20	=20
4a#	Kron'
8a#	und
4b}	Schweif?"}
8r	.
4r	.
{8d	{"Mein
=21	=21
4.e	Sohn,
4r	.
8e	das
4f#	ist
8f#	ein
=22	=22
4g	Ne-
8g	-bel-
4g}	-streif,}
8r	.
4r	.
8r	.
=23	=23
4r	.
8r	.
4r	.
{8e	{das
4f#	ist
8f#	ein
=24	=24
4B	Ne-
8B	-bel-
4B}	-streif!"}
8r	.
4r	.
8r	.
=25	=25
4.r	.
4.r	.
4.r	.
=26	=26
*M6/8	*
2.r	.
=27	=27
4r	.
8r	.
4r	.
{8B	{"Komm,
=28	=28
4e	lie-
8B	-bes
4e	Kind,
8g#	komm,
=29	=29
(g#q	|
4b)	geh'
8b	mit
4b	mir,
8B	gar
=30	=30
4e	scho2-
8B	-ne
4e	Spie-
8g#	-le
=31	=31
(g#q	|
8.b)	spiel'
16b	ich
8b	mit
4b}	dir,}
{8B	{manch'
=32	=32
4e	bun-
8B	-te
8e	Blum-
8e	-en
8g#	sind
=33	=33
4b	an
8b	dem
4b	Strand,
16B	mei-
16B	-ne
=34	=34
*M9/8	*
4e	Mut-
8B	-ter
4e	hat
8e	manch
8g#	gu2l-
8e	-den
8e	Ge-
=35	=35
[2.b	-wand."
4.b_	|
=36	=36
4.b]}	|}
4r	.
8r	.
4r	.
{8b	{"Mein
=37	=37
8.a	Va-
16a	-ter,
8a	mein
8.a	Va-
16a	-ter,
8a	und
8b	ho2-
8b	-rest
8b	du
=38	=38
4cc}	nicht,}
8r	.
4r	.
8r	.
4r	.
{8b	{was
=39	=39
4a	Er-
8a	-len-
8.a	-ko2-
16a	-nig
8a	mir
8.b	lei-
16b	-se
8b	ver-
=40	=40
4.cc}	-spricht?"}
4r	.
{8B#	{"Sei
4B#	ru-
8B#	-hig,
=41	=41
4.c#	blei-
4.c#	-be
8g#	ri-
8g#	-hig,
8g#	mein
=42	=42
4e}	Kind,}
8r	.
4r	.
{8e	{in
(8f#	du2r-
8g#)	|
8a	-ren
=43	=43
4.g#	Bla2t-
4.G#	-tern
8G#	sa2u-
8G#	-selt
8G#	der
=44	=44
4c#}	Wind,}
8r	.
4r	.
{8e	{in
(8f#	dur-
8g#)	.
8a	-ren
=45	=45
4.g#	Bla2t-
4.G#	-tern
8G#	sa2u-
8G#	-selt
8G#	der
=46	=46
4c#}	Wind."}
8r	.
4r	.
8r	.
4r	.
8r	.
=47	=47
4.r	.
4.r	.
4.r	.
=48	=48
4.r	.
4.r	.
4.r	.
=49	=49
4r	.
8r	.
4r	.
8r	.
4r	.
{8B	{"Willst,
=50	=50
4e	fei-
8B	-ner
(4e	Kna-
8B)	|
4e	-be,
8g#	du
=51	=51
(g#q	|
4b)	mit
8b	mir
4.b	geh'n?
4r	.
16B	Mei-
16B	-ne
=52	=52
4e	To2ch-
8B	-ter
(4e	sol-
8B)	|
4e	-len
8g#	dich
=53	=53
(g#q	|
4b)	War-
8b	-ten
4.b}	scho2n,}
4r	.
{16B	{mei-
16B	-ne
=54	=54
4e	To2ch-
8B	-ter
(4e	fu2h-
8B)	|
4e	-ren
8g#	den
=55	=55
(g#q	|
8.b)	na2cht-
16b	-li-
8b	-chen
4.b	Reih'n
4r	.
8B	und
=56	=56
8.e	wie-
16b	-gen
8g#	und
8.e	tan-
16b	-zen
8g#	und
8.e	sin-
16g#	-gen
8e	dich
=57	=57
[2.b	ein."
4.b_	|
=58	=58
4.b]}	|}
4r	.
8r	.
4r	.
{8b	{"Mein
=59	=59
8.a	Va-
16a	-ter,
8a	mein
8.a	Va-
16a	-ter,
8a	und
8b	siehst
8b	du
8b	nicht
=60	=60
4.cc}	dort}
4r	.
8r	.
4r	.
8r	.
=61	=61
{8a	{Erl-
8a	-ko2-
8a	-nig's,
8.a	To2ch-
16a	-ter
8a	am
8.b	du2-
16b	-ste-
8b	-ren
=62	=62
4cc}	Ort?"}
8r	.
4r	.
{8B#	{"Mein
4B#	Sohn,
8B#	mein
=63	=63
4c#	Sohn,
8r	.
4r	.
8c#	ich
8g#	seh'
8g#	es
8g#	ge-
=64	=64
4c#}	-nau,}
8r	.
4r	.
{8c#	{es
8f#	schei-
8g#	-nen
8a	die
=65	=65
4.g#	al-
4.G#	-ten
8G#	Wei-
8G#	-den
8G#	so
=66	=66
4.A}	grau,}
4r	.
{8e	{es
8f#	schei-
8g#	-nen
8a	die
=67	=67
4.g#	al-
4.G#	-ten
8G#	Wei-
8G#	-den
8G#	so
=68	=68
4.c#}	grau."}
4r	.
8r	.
4r	.
8r	.
=69	=69
4.r	.
4.r	.
4.r	.
=70	=70
4.r	.
4.r	.
4.r	.
=71	=71
4r	.
8r	.
4r	.
8r	.
4r	.
{8B	{"Ich
=72	=72
4e	lieb'
8e	dich,
4r	.
8B	mich
8.e	reizt
16e	dei-
8B	-ne
=73	=73
8.e	scho2-
16e	-ne
8g#	Ge-
4.b	-stalt,
4r	.
8B	und
=74	=74
8.e	bist
16e	du
8B	nicht
8e	wil-
8e	-lig,
8B	so
8e	brauch'
8g	ich
8b	Ge-
=75	=75
4.cc}	-walt."}
4r	.
{8a	{"Mein
8.ee	Va-
16ee	-ter,
8ee	mein
=76	=76
*M6/8	*
8.dd#	Va-
16dd#	-ter,
8dd#	jetzt
8.dd#	fasst
16dd#	er
8dd#	mich
=77	=77
8ee}	an,}
8r	.
{8ee	{Erl-
4cc	-ko2-
8cc	-nig
=78	=78
8.b	hat
16b	mir
8b	ein
4cc	Leid's
8b	ge-
=79	=79
4b	-than,
8ee	Erl-
4cc	-ko2-
8cc	-nig
=80	=80
8.b	hat
16b	mir
8b	ein
4cc	Leid's
8b	ge-
=81	=81
*M9/8	*
4e}	-than."}
8r	.
4r	.
8r	.
4r	.
8r	.
=82	=82
4r	.
8r	.
4r	.
{8e	{Dem
4e	Va-
8e	-ter
=83	=83
4g	grau-
8g	-set's,
4r	.
8g	er
8.g	rei
16g	tet
8g	ge-
=84	=84
4.g#}	-schwind,}
4r	.
{8g#	{er
8.g#	ha2lt
16g#	in
8g#	den
=85	=85
4.a#	Ar-
4a#	-men
8a#	das
8.a#	a2ch-
16a#	zen
8a#	-de
=86	=86
4.g#}	Kind,}
4r	.
{8g#	{er-
4g#	-reicht
8g#	den
=87	=87
[4.a	Hof
4a]	|
8a	mit
8a	Mu2-
8a	-he
8a	und
=88	=88
[4.a#	Noth,
8a#]}	|}
8r	.
{8a#	{in
4a#	sei-
8a#	-nen
=89	=89
(2.b	Ar-
4.B)	-men
=90	=90
4r	.
8r	.
4r	.
8r	.
4B	das
8r	.
=91	=91
4B	Kind
8r	.
4r	.
8r	.
8B	war
8r	.
8r	.
=92	=92
2.g#}	todt.}
4r	.
8r	.
==	==
*-	*-
